contributed-vectors/kucoin.svg

<svg xmlns="http://www.w3.org/2000/svg" viewBox="0 0 192 192"><path fill="#96dfd3" d="M39 32.42a13 13 0 0 1 13 13v101.07a13 13 0 0 1-26 0V45.43a13 13 0 0 1 13-13.01Z"/><path fill="#96dfd3" d="M123 24.56a13 13 0 0 1-.09 18.37L51.07 114a13 13 0 1 1-18.29-18.43l71.85-71.08a13 13 0 0 1 18.37.07Z"/><path fill="#96dfd3" d="M123 167.26a13 13 0 0 0-.09-18.37L51.07 77.82a13 13 0 1 0-18.29 18.46l71.85 71.07a12.93 12.93 0 0 0 18.37-.09Z"/><path fill="#96dfd3" d="M162.2 112.7a13 13 0 0 1 0 18.4l-37.8 37.62a13 13 0 0 1-18.4-18.44l37.8-37.62a13 13 0 0 1 18.4.04ZM162.2 79.3a13 13 0 0 0 0-18.4l-37.8-37.62A13 13 0 0 0 106 41.72l37.8 37.62a13 13 0 0 0 18.4-.04Z"/><circle cx="115.25" cy="96.01" r="13.12" fill="#96dfd3"/></svg>

<svg xmlns="http://www.w3.org/2000/svg" viewBox="0 0 192 192"><title>KuCoin</title><path d="M39,32.42a13,13,0,0,1,13,13V146.49a13,13,0,0,1-26,0V45.43A13,13,0,0,1,39,32.42Z" fill="#96dfd3"/><path d="M123,24.56a13,13,0,0,1-.09,18.37L51.07,114A13,13,0,1,1,32.78,95.57l71.85-71.08a13,13,0,0,1,18.37.07Z" fill="#96dfd3"/><path d="M123,167.26a13,13,0,0,0-.09-18.37L51.07,77.82A13,13,0,1,0,32.78,96.28l71.85,71.07A12.93,12.93,0,0,0,123,167.26Z" fill="#96dfd3"/><path d="M162.2,112.7a13,13,0,0,1,0,18.4l-37.8,37.62A13,13,0,0,1,106,150.28l37.8-37.62A13,13,0,0,1,162.2,112.7Z" fill="#96dfd3"/><path d="M162.2,79.3a13,13,0,0,0,0-18.4l-37.8-37.62A13,13,0,0,0,106,41.72l37.8,37.62A13,13,0,0,0,162.2,79.3Z" fill="#96dfd3"/><circle cx="115.25" cy="96.01" r="13.12" fill="#96dfd3"/></svg>
